src/img/categories/pets.svg

<svg width="42" height="33" viewBox="0 0 42 33" fill="none" xmlns="http://www.w3.org/2000/svg">
<path d="M16.1891 13.9366C15.226 13.6226 11.0981 12.2761 9.05006 11.5898C8.01152 14.2685 2.52515 28.7619 4.41578 31.2542C6.50022 34.0029 13.9872 30.781 16.167 31.2542C18.3471 31.7288 18.0783 30.2139 18.0783 30.2139L16.1891 13.9366Z" fill="#232F3E"/>
<path d="M21.6791 5.79636C21.1074 5.01516 17.8546 5.18042 17.8546 5.18042C17.8546 5.18042 17.0292 3.40948 16.4975 3.08171C15.876 2.70009 14.1401 2.76776 14.1401 2.76776C14.1401 2.76776 14.3017 0.203189 13.5191 0.0121465C12.0257 -0.352906 10.0394 7.61149 9.41467 10.293C11.0958 10.9748 14.2441 12.1905 16.0211 12.4865L16.0036 12.3355C16.0036 12.3355 16.0652 11.0406 16.9293 10.7317C17.5103 10.5241 20.3842 9.93438 21.187 9.12786C21.7795 8.53126 22.1777 6.47582 21.6791 5.79636Z" fill="#232F3E"/>
<path d="M24.3293 18.593C25.6127 18.2058 27.6111 17.4969 29.26 16.4418C29.1961 15.5837 29.4727 14.6267 29.5901 14.0429C29.7747 13.1177 29.5284 12.5892 29.0345 11.2662C28.9456 11.0282 28.5433 8.38671 27.7395 8.30476C26.9468 8.2242 25.8885 10.8956 25.8885 10.8956C25.8885 10.8956 23.6052 10.8956 23.3322 11.9139C23.004 13.137 21.7422 13.8022 21.6929 13.9808C21.5033 14.6695 21.837 16.5398 22.9345 16.8253C23.6038 16.9997 24.0886 17.8702 24.3293 18.593Z" fill="#232F3E"/>
<path d="M29.8198 17.7501C29.714 17.6525 29.6288 17.5429 29.5561 17.4265C28.669 17.908 26.0027 19.3203 24.5236 19.7249C25.128 22.5726 24.7828 29.7632 24.8007 30.0712C24.8256 30.5278 24.5277 30.8118 24.7487 31.176C25.0857 31.733 25.7476 31.7855 26.5288 31.6441C27.3105 31.5005 33.1288 33.1136 36.7742 31.5889C41.2465 28.8954 33.7857 19.3056 29.8198 17.7501Z" fill="#232F3E"/>
<path d="M4.2257 30.3538C1.11884 27.9647 1.0903 22.4663 0.296209 24.1272C-0.446325 25.6804 0.279636 29.4285 1.66757 31.0743C2.94272 32.586 5.5722 32.5138 5.6767 31.5659" fill="#232F3E"/>
<path d="M38.1318 28.524C39.3526 29.2923 41.571 26.0188 39.7315 24.9149C38.5733 24.2202 38.4453 24.0089 38.1184 23.4699C37.3322 22.1772 38.362 18.5626 40.3451 18.0972C41.8191 17.752 41.9149 19.1058 41.1051 19.5478C39.1823 20.6908 39.0212 22.6095 40.3299 23.5449C41.0697 24.0738 41.5913 24.4509 41.9135 25.6298C42.3688 27.2926 41.0025 29.9377 38.3772 30.7695C38.3772 30.7695 36.9169 31.0978 36.6476 30.4998" fill="#232F3E"/>
</svg>

<svg width="42" height="33" fill="none" xmlns="http://www.w3.org/2000/svg"><path d="M16.19 13.937c-.964-.314-5.092-1.66-7.14-2.347-1.038 2.678-6.525 17.172-4.634 19.664 2.084 2.749 9.571-.473 11.751 0 2.18.475 1.911-1.04 1.911-1.04L16.19 13.937zm5.49-8.141c-.573-.78-3.825-.616-3.825-.616s-.826-1.77-1.358-2.098c-.621-.382-2.357-.314-2.357-.314s.162-2.565-.62-2.756c-1.494-.365-3.48 7.6-4.105 10.281 1.68.682 4.83 1.898 6.606 2.194l-.017-.152s.061-1.294.925-1.603c.581-.208 3.455-.798 4.258-1.604.592-.597.99-2.652.492-3.332zm2.65 12.797c1.283-.387 3.281-1.096 4.93-2.151-.064-.858.213-1.815.33-2.4.185-.924-.062-1.453-.555-2.776-.09-.238-.492-2.88-1.296-2.961-.792-.08-1.85 2.59-1.85 2.59s-2.284 0-2.557 1.019c-.328 1.223-1.59 1.888-1.64 2.067-.189.688.145 2.559 1.242 2.844.67.175 1.155 1.045 1.395 1.768zm5.49-.843a1.554 1.554 0 01-.264-.323c-.887.481-3.553 1.893-5.032 2.298.604 2.848.259 10.038.277 10.346.025.457-.273.74-.052 1.105.337.557.999.61 1.78.468.782-.143 6.6 1.47 10.245-.055 4.472-2.694-2.988-12.283-6.954-13.839z" fill="#232F3E"/><path d="M4.226 30.354c-3.107-2.39-3.136-7.888-3.93-6.227-.742 1.553-.016 5.302 1.372 6.947 1.275 1.512 3.904 1.44 4.009.492m32.455-3.042c1.22.768 3.439-2.505 1.6-3.61-1.159-.694-1.287-.905-1.614-1.444-.786-1.293.244-4.907 2.227-5.373 1.474-.345 1.57 1.009.76 1.45-1.923 1.144-2.084 3.063-.775 3.998.74.529 1.261.906 1.584 2.085.455 1.663-.912 4.308-3.537 5.14 0 0-1.46.328-1.73-.27" fill="#232F3E"/></svg>
